src/img/HomePage/Crystals/UpLeft1.svg

<?xml version="1.0" encoding="UTF-8"?> <svg xmlns="http://www.w3.org/2000/svg" width="195" height="133" viewBox="0 0 195 133" fill="none"> <path fill-rule="evenodd" clip-rule="evenodd" d="M13.7282 2.81601C29.0615 6.22369 51.7809 7.472 63.9032 5.57135L73.5117 4.06566L86.5442 18.1313C100.581 33.2814 119.4 51.542 140.245 70.2388C147.431 76.6839 157.023 86.5477 161.561 92.1574C166.099 97.7672 175.401 107.773 182.23 114.391C190.851 122.745 194.738 127.513 194.943 129.98C195.176 132.789 194.734 133.38 192.838 132.796C191.519 132.389 186.108 130.737 180.813 129.124C171.33 126.237 166.494 124.221 146.782 114.935C141.296 112.352 130.619 107.73 123.055 104.665C110.836 99.7132 103.504 97.2579 74.2364 88.308C70.0765 87.0349 65.4352 84.9539 63.9225 83.6823C60.1614 80.5196 44.1514 70.4562 31.2618 63.1509C25.0652 59.64 20.6165 56.2185 20.6344 54.9771C20.6509 53.8032 21.8748 51.2942 23.3545 49.4018C24.8342 47.5094 26.0582 44.6426 26.0747 43.0324C26.1448 36.2666 19.3265 24.7718 5.91708 9.04919C0.254059 2.41 -1.25445 -0.360467 1.00773 0.0372791C1.57431 0.136371 7.29921 1.38743 13.7282 2.81601ZM61.8129 7.65501C50.0977 9.91762 37.6056 9.25838 18.4974 5.37038C6.23454 2.87514 4.41154 2.48837 4.14563 2.96736C4.09152 3.06484 4.1019 3.19818 4.1019 3.3569C4.1019 3.76841 7.04205 7.64537 10.634 11.9724C18.7531 21.7509 25.2441 31.9863 27.5984 38.7191C29.2431 43.4246 29.1386 44.2132 26.3758 47.954C21.0016 55.2276 21.9271 56.4924 38.8254 64.9552C56.5529 73.8322 66.6426 77.7546 65.0887 75.1658C64.3365 73.912 64.6224 73.9244 66.2163 75.2154C67.5254 76.2765 68.0976 78.2707 67.696 80.3765C66.9988 84.0222 69.2926 85.1742 70.577 81.8243C71.2206 80.148 73.2271 80.3462 83.4447 83.0905C100.284 87.6129 106.606 89.8673 127.869 98.9315C138.079 103.285 147.981 107.321 149.872 107.899C151.763 108.479 154.531 109.799 156.023 110.832C160.214 113.736 160.608 113.193 159.319 106.289C158.194 100.258 159.096 95.8087 160.529 100.324C161.634 103.806 180.282 121.175 185.061 123.173C187.538 124.208 189.953 125.685 190.427 126.453C193.193 130.931 173.05 123.833 157.504 114.85C150.228 110.645 143.99 107.206 143.643 107.206C143.297 107.206 136.767 104.397 129.132 100.963C113.997 94.1544 101.367 89.6732 84.9188 85.276C72.4843 81.9509 71.4805 81.867 71.5011 84.153C71.5108 85.1618 78.1914 87.8042 87.6596 90.543C107.545 96.2932 128.707 104.493 151.713 115.359C165.689 121.959 188.466 130.603 191.886 130.603C194.782 130.603 190.433 124.829 179.325 113.936C172.078 106.829 162.801 96.5753 158.71 91.1527C154.619 85.7302 150.735 81.0852 150.079 80.8306C147.169 79.7007 120.936 55.0129 97.5677 31.4124L72.0815 5.67316L61.8129 7.65501ZM104.799 45.4519L116.18 56.6411L104.814 46.6644C93.841 37.0318 91.1334 34.2627 92.6846 34.2627C93.0875 34.2627 98.5387 39.2985 104.799 45.4519ZM39.1691 58.4288C56.0124 68.4867 63.2349 73.0904 63.2349 73.7675C63.2349 74.0813 62.7701 74.0744 62.2035 73.7538C49.6769 66.6632 24.7297 51.7333 24.7297 51.3259C24.7297 50.0858 27.3852 51.3919 39.1691 58.4288ZM126.612 64.4281C137.561 72.8303 152.747 86.8959 151.844 87.7987C151.474 88.1689 147.321 84.7489 142.615 80.2003C137.908 75.6503 131.891 70.3062 129.244 68.3243C122.031 62.9224 116.077 57.7655 116.986 57.7091C117.428 57.6816 121.76 60.7052 126.612 64.4281ZM155.983 92.8318C157.281 94.8123 158.068 96.7102 157.731 97.046C157.395 97.3818 156.059 96.0358 154.762 94.0539C153.464 92.0735 152.677 90.1756 153.014 89.8397C153.35 89.5039 154.686 90.85 155.983 92.8318Z" fill="#FA007A"></path> </svg>

<svg xmlns="http://www.w3.org/2000/svg" width="195" height="133" fill="none"><path fill-rule="evenodd" clip-rule="evenodd" d="M13.728 2.816c15.333 3.408 38.053 4.656 50.175 2.755l9.609-1.505L86.544 18.13c14.037 15.15 32.856 33.411 53.701 52.108 7.186 6.445 16.778 16.309 21.316 21.918 4.538 5.61 13.84 15.616 20.669 22.234 8.621 8.354 12.508 13.122 12.713 15.589.233 2.809-.209 3.4-2.105 2.816-1.319-.407-6.73-2.059-12.025-3.672-9.483-2.887-14.319-4.903-34.031-14.189-5.486-2.583-16.163-7.205-23.727-10.27-12.219-4.952-19.551-7.407-48.819-16.357-4.16-1.273-8.8-3.354-10.314-4.626-3.76-3.162-19.77-13.226-32.66-20.531-6.197-3.511-10.646-6.933-10.628-8.174.017-1.174 1.24-3.683 2.72-5.575 1.48-1.893 2.704-4.76 2.72-6.37.07-6.765-6.748-18.26-20.157-33.983C.254 2.41-1.254-.36 1.007.037c.567.1 6.292 1.35 12.721 2.779Zm48.085 4.839C50.098 9.918 37.606 9.258 18.497 5.37 6.235 2.875 4.412 2.488 4.146 2.967c-.054.098-.044.231-.044.39 0 .411 2.94 4.288 6.532 8.615 8.12 9.779 14.61 20.014 16.964 26.747 1.645 4.706 1.54 5.494-1.222 9.235-5.374 7.274-4.449 8.538 12.45 17.001 17.727 8.877 27.817 12.8 26.263 10.21-.752-1.253-.467-1.24 1.127.05 1.31 1.061 1.882 3.056 1.48 5.161-.697 3.646 1.597 4.798 2.881 1.448.644-1.676 2.65-1.478 12.868 1.267 16.839 4.522 23.161 6.776 44.424 15.84 10.21 4.354 20.112 8.39 22.003 8.968 1.891.58 4.659 1.9 6.151 2.933 4.191 2.904 4.585 2.361 3.296-4.543-1.125-6.031-.223-10.48 1.21-5.965 1.105 3.482 19.753 20.851 24.532 22.849 2.477 1.035 4.892 2.512 5.366 3.28 2.766 4.478-17.377-2.62-32.923-11.603-7.276-4.205-13.514-7.644-13.861-7.644-.346 0-6.876-2.809-14.511-6.243-15.135-6.809-27.765-11.29-44.213-15.687-12.435-3.325-13.438-3.409-13.418-1.123.01 1.009 6.69 3.651 16.159 6.39 19.885 5.75 41.047 13.95 64.053 24.816 13.976 6.6 36.753 15.244 40.173 15.244 2.896 0-1.453-5.774-12.561-16.667-7.247-7.107-16.524-17.36-20.615-22.783-4.091-5.423-7.975-10.068-8.631-10.322-2.91-1.13-29.143-25.818-52.511-49.419L72.082 5.673l-10.27 1.982Zm42.986 37.797 11.381 11.19-11.366-9.978c-10.973-9.632-13.68-12.401-12.13-12.401.404 0 5.855 5.035 12.115 11.189Zm-65.63 12.977C56.012 68.487 63.235 73.09 63.235 73.767c0 .314-.465.307-1.032-.013-12.526-7.09-37.473-22.02-37.473-22.428 0-1.24 2.655.066 14.44 7.103Zm87.443 6c10.949 8.401 26.135 22.467 25.232 23.37-.37.37-4.523-3.05-9.229-7.599-4.707-4.55-10.724-9.894-13.371-11.876-7.213-5.402-13.167-10.558-12.258-10.615.442-.027 4.774 2.996 9.626 6.72Zm29.371 28.403c1.298 1.98 2.085 3.878 1.748 4.214-.336.336-1.672-1.01-2.969-2.992-1.298-1.98-2.085-3.878-1.748-4.214.336-.336 1.672 1.01 2.969 2.992Z" fill="#FA007A"/></svg>
